X: 1110
T: A Theater Tune
%R: march
B: Henry Playford "Apollo's Banquet", London 1687 (5th Edition)
F: https://archive.org/details/apollosbanquetco01rugg
Z: 2017 John Chambers <jc:trillian.mit.edu>
M: C|
L: 1/8
K: F
% - - - - - - - - - -
|:\
F2A2 A2(GF) | A2c2 d2(cA) | F2A2 A2(GF) | A2c2 f4 |\
F2A2 A2(GF) | A2c2 d3e | (fg)(fd) (cd)(cA) | G4 F4 :|
|:\
f2a2 a2(gf) | g2b2 d2ef | g2a2 (ga)(gf) | d4 c2de |\
f2g2 e2(dc) | (de)f2 A3d | c2f2 (cd)(cA) | G4 F4 |]
% - - - - - - - - - -

%%sep 1 1 500
%%sep 1 1 500

